X:1
T:Piraci z Karaibów
%%score 1 2 3 4
L:1/8
Q:1/4=100
M:3/4
K:F
V:1 treble transpose=-2 nm="Clarinetto in B♭" snm="Cl. in B♭"
V:2 treble nm="Violino" snm="V-no"
V:3 alto nm="Viola" snm="V-la"
V:4 bass nm="Fagotto" snm="Fag."
V:1
[K:G]"^Majestically" E6 | z2!mf!"^Cl solo" E2 F2 | G3 A B2 | A2 G2 F2 | G2 A2 B2 | A4 GA | %6
 B3 A G2 | F2 G2 F2 | E3 F D2 | !>!E/!>!E/!>!E z !>!D !>!B,2 | B,/B,/B, z2 EF | G3 F G2 | %12
 A2 G2 A2 | B3 A G2 | E4 EF | G2 A2 B2 | c2 E2 A2 | G3 A F2 | E3 B, GF | E6 |!mp!"^Vla solo" G6 | %21
 F6 | E6 | F6"^Vln solo" | E3 D C2 | B,2 D2 B,2 | A,6 | z6 |"^Cl solo"!mf! .E z/ D/ .E.F .G.B, | %29
 .E z/ G/ .F.D .E.B, | .E z/ D/ .E.F .G.A | .B z .F z .D z | .E z/ D/ .E.F .G z | %33
 .E z/ G/ .F.D .E.B, | .E z/ D/ .E.F .G.A | !^!BB, ^C^D EF | G3 A B2 | A2 G2 F2 | G2 A2 B2 | %39
 A4 GA | !>!.B2 !>!.A2 z2 | !>!.G2 !>!.F2 z2 |:"^Fg solo"[Q:1/4=144] .G,2 z2 z2 | .F,2 z2 .F,2 | %44
 .G,2 z2 z2 | .A,2 z2 z2 | .A,2 z2 .A,2 | .B2 .A2 .G2 | .A2 .G2 .F2 | .G2 .B2 .e2 :| %50
"^Cl solo" !>!.B2 z4 | !>!.c2 z4 | !>!.B2 !>!.B2 !>!.B2 | !>!.B!>!.A z4 | !>!.A2 z4 | !>!.G2 z4 | %56
 !>!.F2 !>!.G2 !>!.F2 | !>!.E2 !tenuto!E!tenuto!F !tenuto!G!tenuto!A | !>!.B2 z4 | !>!.c2 z4 | %60
 !>!.B2 !>!.B2 !>!.B2 | !>!.B!>!.A z4 | !tenuto!B,2 !tenuto!^C2 !tenuto!^D2 | %63
 !tenuto!E2 !tenuto!F2 !tenuto!G2 | !tenuto!E2 !tenuto!F2 !tenuto!G2 | %65
 !tenuto!B2 !tenuto!B2 !tenuto!A2 | !>!.B2 z4 | !>!.c2 z4 | !>!.F2 !>!.F2 !>!.A2 | %69
 !>!.B2 !fermata!z2[Q:1/4=60]"^Slowly" z2 ||[M:4/4]!mp!"^Vln solo" ED C2 =FE D2- | D4- DECB, | %72
 E4 =FEDD | D8 | A,4 ^A,4 | G,4 A,4 | D2 (D(E) (=F)(D)(D)F) | E6[Q:1/4=180] B,D || %78
[M:3/4] .E2 .E2 .E.F | .G2 .G2 .G.A | .F2 .F2 .E.D | !>!.D.E z2 .B,.D | .E2 .E2 .E.F | %83
 .G2 .G2 .G.A | .F2 .F2 .E.D | .!^!E2 z2 .B,.D | .E2 .E2 .E.G | .A2 .A2 .A.B | .c2 .c2 .B.A | %89
 !>!.B.E z2 .E.F | .G2 .G2 .A2 | !>!.B.E z2 .E.G | .F2 .F2 .E.D | !>!.E2 z2 z2 | G4 !>!.A.B | %95
 .A2 .G2 .F2 | .G2 .A2 .B2 | .A2 z2 !>!.G.A | B4 !>!.A.G | .F2 .G2 .F2 | .E3 !>!.F .D2 | %101
 !>!.E2 z2 !>!.E.F | .G2 .F2 .G2 | .A2 .G2 .A2 | .B2 .A2 .G2 | .E2 z2 !>!.E.F | .G2 .A2 .B2 | %107
 .c2 .E2 .A2 | .G2 z !>!.A .F2 | .E2 z !>!.F .^D2 | !>!.B2 z2 z2 | !>!.c2 z2 z2 | %112
 !>!.B2 !>!.B2 !>!.B2 | !>!.B!>!.A z2 z2 | !>!.A2 z2 z2 | !>!.G2 z2 z2 | !>!.F2 !>!.G2 !>!.F2 | %117
 !>!.E2 !tenuto!E!tenuto!F !tenuto!G!tenuto!A | !>!.B2 z2 z2 | !>!.c2 z2 z2 | %120
 !>!.B2 !>!.B2 !>!.B2 | !>!.B!>!.A z2 z2 | !tenuto!B,2 !tenuto!^C2 !tenuto!^D2 | %123
 !tenuto!E2 !tenuto!F2 !tenuto!G2 | !tenuto!A2 !tenuto!G2 F2 | !tenuto!F2 !tenuto!G2 !tenuto!A2 | %126
 B6- | B z EF GA | B6- | B z EF GA | B6- | B6 | !>!.B2 !>!.B2 !>!.d2 | !>!.e2 z2 z2 |] %134
V:2
 A,6 | z2!mp! F2 A,2 | D3 E F2 | E2 A,2 G,2 | A,2 C2 F2 | E4 A,C | F3 D D2 | ^C2 D2 C2 | %8
 A,3 C G,2 | !>!A,/!>!A,/!>!A, z !>!C !>!A,2 | D/D/ D2 A, DE | D3 D D2 | E2 C2 E2 | F3 E C2 | %14
 B,4 B,^C | D2 D2 D2 | D2 D2 D2 | D3 E ^C2 | A,3 A, D^C | A,6 | A,6 | ^C6 | A,6 | ^C4!mf! de | %24
 f3 e d2 | c2 f2 A2 | G3 F G2 | A6 |!mp! .A,2 z2 z .A, | .A,2 z2 z .A, | .A,2 z2 z2 | %31
 z .A, z .A, z .A, | .A,2 z2 z .A, | .A,2 z2 z .A, | .A,2 z2 z2 | z A, =B,^C DC | D3 E F2 | %37
 E2 A,2 G,2 | A,2 C2 F2 | E4 A,C | !>!.C2 !>!.B,2 z2 | !>!.D2 !>!.^C2 z2 |: .D2 z2 z2 | %43
 .C2 z2 .G,2 | .A,2 z2 z2 | .C2 z2 z2 | .D2 z2 .D2 | .D2 z2 .A,2 | .C2 .C2 .C2 | .A,2 .D2 .F2 :| %50
 !>!.F2 z2 z2 | !>!.F2 z2 z2 | !>!.F2 !>!.F2 !>!.F2 | !>!.F!>!.E z2 z2 | !>!.D2 z2 z2 | %55
 !>!.D2 z2 z2 | !>!.^C2 !>!.D2 !>!.C2 | !>!A,2 !>!D2 !>!D2 | !>!.F2 z2 z2 | !>!.F2 z2 z2 | %60
 !>!.F2 !>!.F2 !>!.F2 | !>!.F!>!.E z2 z2 | !tenuto!A,2 !tenuto!=B,2 !tenuto!^C2 | %63
 !tenuto!D2 !tenuto!^C2 !tenuto!D2 | !tenuto!D2 !tenuto!^C2 !tenuto!D2 | %65
 !tenuto!F2 !tenuto!F2 !tenuto!E2 | !>!.F2 z2 z2 | !>!.F2 z2 z2 | !>!.C2 !>!.C2 !>!.E2 | %69
 !>!.F2 !fermata!z2 DF ||[M:4/4]!mf! G2 (GA) B2 (Bc) | (A2 (G)F) (F<G) DF | G2 (GA) B2 (Bc) | %73
 (A2 (G)(F) G4) | C2 (C(D) _E2) (EF) | (_A2 (G)(F) (G)(C)(C)D) | _E2 (E(F) (G)(C)(C)E) | D8 || %78
[M:3/4]!mp! A,6 | B,6 | C6 | A,6 | B,6 | C6 | C6 | A,6 | A,4 B,2 | D6 | D4 .C.B, | A,6 | F4 G,2 | %91
 A,6 | C6 | z2 .A,2 .G,2 | .A,2 .A,2 .A,2 | .C2 .C2 .C2 | .C2 .C2 .C2 | .C2 .C2 .C2 | .C2 .C2 .C2 | %99
 .^C2 .C2 .C2 | .D2 .D2 .C2 | .A,2 .A,.A, .A,.A, | D6 | E6 | C6 | B,6 | .F2 .G2 .A2 | B,6 | A,6 | %109
 A,6 | !>!.F2 z2 z2 | !>!.F2 z2 z2 | !>!.F2 !>!.F2 !>!.F2 | !>!.F!>!.E z2 z2 | !>!D2 z2 z2 | %115
 !>!D2 z2 z2 | !>!.^C2 !>!.D2 !>!.C2 | !>!.A,2 D2 D2 | !>!.F2 z2 z2 | !>!.F2 z2 z2 | %120
 !>!.F2 !>!.F2 !>!.F2 | !>!.F!>!.E z2 z2 | !tenuto!A,2 !tenuto!=B,2 !tenuto!^C2 | %123
 !tenuto!D2 !tenuto!^C2 !tenuto!D2 | !tenuto!E2 !tenuto!D2 ^C2 | %125
 !tenuto!^C2 !tenuto!D2 !tenuto!E2 | F3 E3 | D6 | F3 E3 | D6 | D6- | D6 | !>!.^C2 !>!.C2 !>!.E2 | %133
 !>!.F2 z2 z2 |] %134
V:3
 A,6 |!mp! A,2 F,2 A,2 | A,3 A, A,2 | C2 D2 C2 | A,2 CC CC | C4 A,C | C3 B, B,2 | A,2 A,2 A,2 | %8
 F,3 G, E,2 | !>!F,/!>!F,/!>!F, z !>!G, !>!D,2 | F,/F,/ F,2 E, F,2 | A,3 A, A,2 | C2 A,2 C2 | %13
 C3 C A,2 | F,4 F,A, | A,2 B,2 A,2 | B,2 B,2 B,2 | A,3 A, A,2 | F3 A FE | F6 |!mf! D3 A, D2 | %21
 E2 A,2 E2 | F3 E D2 | E6 |!mp! D2 C2 B,2 | A,6 | B,C DD DD | ^C2 =B,2 A,2 | .F,2 z2 z .F, | %29
 .F,2 z2 z .E, | .F,2 z2 z2 | z .E, z .E, z .E, | .F,2 z2 z .F, | .F,2 z2 z .E, | .F,2 z2 z2 | %35
 z ^C, D,E, F,E, | A,3 A, A,2 | C2 A,2 G,2 | A,2 CC CC | C4 A,C | !>!.C2 !>!.B,2 z2 | %41
 !>!.A,2 !>!.A,2 z2 |: .D,2 z2 z2 | .A,2 z2 .A,2 | .D,2 z2 z2 | .C,2 z2 z2 | .G,2 z2 .G,2 | %47
 .D,2 z2 .D,2 | .C,2 .C,2 .A,2 | .D,2 .D,2 .A,2 :| !>!.D2 z2 z2 | !>!.D2 z2 z2 | %52
 !>!.C2 !>!.C2 !>!.C2 | !>!.C!>!.C z2 z2 | !>!.B,2 z2 z2 | !>!.A,2 z2 z2 | %56
 !>!.A,2 !>!.A,2 !>!.A,2 | !>!F,2 !>!A,2 !>!D2 | !>!.D2 z2 z2 | !>!.D2 z2 z2 | %60
 !>!.C2 !>!.C2 !>!.C2 | !>!.C!>!.C z2 z2 | !tenuto!A,2 !tenuto!A,2 !tenuto!A,2 | %63
 !tenuto!A,2 !tenuto!A,2 !tenuto!A,2 | !tenuto!A,2 !tenuto!A,2 !tenuto!A,2 | %65
 !tenuto!A,2 !tenuto!=B,2 !tenuto!^C2 | !>!.D2 z2 z2 | !>!.D2 z2 z2 | !>!.A,2 !>!.A,2 !>!.G,2 | %69
 !>!.A,2 !fermata!z2 z2 ||[M:4/4] B,A,G,F, G,4 | A,4 B,A,G,A, | B,4 G,F,_E,D, | A,4 z2 G,B, | %74
 CB,_A,B, C4- | C4 C3 B, | _A,B,CB, C4 | C4 =B,4 ||[M:3/4] F,6 | D,6 | E,6 | F,6 | F,6 | A,6 | %84
 G,6 | F,6 | F,6 | G,6 | G,6 | F,6 | D,6 | F,6 | E,6 | z2 .F,2 .E,2 | .F,2 .F,2 .F,2 | %95
 .G,2 .G,2 .G,2 | .A,2 .A,2 .A,2 | .E,2 .E,2 .F,2 | .F,2 .F,2 .F,2 | .A,2 .A,2 .A,2 | %100
 .A,2 .A,2 .G,2 | .D,2 .D,.D, .D,.D, | A,6 | G,6 | .A,2 .G,2 .F,2 | F,6 | .F,2 .F,2 .F,2 | G,6 | %108
 D,6 | E,6 | !>!.D2 z2 z2 | !>!.D2 z2 z2 | !>!.C2 !>!.C2 !>!.C2 | !>!.C!>!.C z2 z2 | %114
 !>!.B,2 z2 z2 | !>!.B,2 z2 z2 | !>!.A,2 !>!.A,2 !>!.A,2 | !>!.F,2 A,2 D2 | !>!.D2 z2 z2 | %119
 !>!.D2 z2 z2 | !>!.C2 !>!.C2 !>!.C2 | !>!.C!>!.C z2 z2 | A,4 !tenuto!G,2 | %123
 !tenuto!F,2 !tenuto!E,2 !tenuto!D,2 | !tenuto!E,2 !tenuto!F,2 !tenuto!G,2 | %125
 !tenuto!G,2 !tenuto!F,2 !tenuto!E,2 | A,3 G,3 | F,6 | A,3 G,3 | F,6 | F,6- | F,6 | E,2 E,2 G,2 | %133
 A,2 z2 z2 |] %134
V:4
 D,,6 |!mp! D,,2 D,,D,, D,,2 | D,2 D,2 D,2 | C,2 C,C, C,2 | F,,2 F,,2 F,,2 | C,2 C,C, C,2 | %6
 F,,2 F,,G,, G,,2 | A,,2 A,,2 A,,2 | D,4 C,2 | A,, A,,2 A,, A,,2 | A,,/A,,/ A,,2 A,, A,,2 | %11
 D,2 D,2 D,2 | C,2 C,C, C,2 | F,,2 F,,G,, A,,2 | B,,2 B,,2 B,,A,, | D,2 E,2 F,2 | G,4 G,,2 | %17
 A,,2 A,,2 A,,2 | A,,2 A,,2 A,,2 | D,6 | D,,6 | A,,6 | D,,6 | A,,6 | D,2 E,2 F,2 | A,G, F,E, D,C, | %26
 D,E, F,A, G,F, | A,,2 A,,2 A,,2 | .D,,2 z2 z .D,, | .D,,2 z2 z .C,, | .D,,2 z2 z2 | %31
 z .C, z .C, z .C, | .D,,2 z2 z .D,, | .D,,2 z2 z .C,, | .D,,2 z2 z2 | z A,,2 A,,2 A,, | %36
 D,D,/D,/ D,D, D,D, | C,C,/C,/ C,C, C,C, | F,,F,,/F,,/ F,,F,, F,,F,, | C,C,/C,/ C,C, C,C, | %40
 !>!.F,,2 !>!.G,,2 z2 | !>!.A,,2 !>!.A,,2 z2 |: .D,2 .D,.E, .F,.D, | .E,2 .D,2 .C,2 | %44
 .D,2 .D,.E, .F,.D, | .E,2 .F,2 .G,2 | .G,2 .G,.A, .B,.G, | .F,2 .E,2 .D,2 | .E,2 .D,2 .C,2 | %49
 .D,2 .F,2 .A,2 :| D,,2 D,,D,, D,,D,, | D,,2 D,,D,, D,,D,, | F,,6 | C,2 C,C, C,C, | %54
 G,,2 G,,G,, G,,G,, | D,2 D,D, D,D, | A,,6 | D,2 D,2 A,,2 | D,,2 D,,D,, D,,D,, | %59
 D,,2 D,,D,, D,,D,, | F,,6 | C,2 C,C, C,C, | A,,4 !tenuto!G,2 | %63
 !tenuto!F,2 !tenuto!E,2 !tenuto!D,2 | !tenuto!F,2 !tenuto!E,2 !tenuto!D,2 | %65
 !tenuto!A,,2 !tenuto!A,,2 !tenuto!A,,2 | !>!.D,2 z2 z2 | !>!.D,2 z2 z2 | %68
 !>!.A,,2 !>!.A,,2 !>!.C,2 | !>!.D,2 !fermata!z2 z2 ||[M:4/4] G,,3 F,, _E,,4 | F,,4 G,,4 | %72
 G,,3 F,, _E,,4 | F,,4 C,2 D,2 | _E,D,C,B,, _A,,4 | F,,4 C,2 C,B,, | ^G,,4 C,2 _E,2 | G,,8 || %78
[M:3/4] D,,6 | B,,6 | A,,6 | D,,6 | B,,6 | F,,6 | C,6 | D,,6 | D,,6 | B,,6 | G,,6 | D,,6 | B,,6 | %91
 D,6 | A,,6 | D,6 | D,6 | C,6 | F,,6 | C,6 | F,,6 | A,,6 | D,,6 | D,,6 | D,6 | C,6 | F,,6 | B,,6 | %106
 D,6 | G,,6 | A,,6 | A,,6 | D,,6- | D,,6 | F,,6 | C,6 | G,,6 | D,6 | A,,6 | D,2 D,2 A,,2 | D,,6- | %119
 D,,6 | F,,6 | C,6 | A,,4 !tenuto!G,2 | !tenuto!F,2 !tenuto!E,2 !tenuto!D,2 | A,,6- | A,,6 | %126
 D,3 C,3 | B,,6 | D,3 C,3 | B,,6 | D,6- | D,6 | A,,2 A,,2 C,2 | D,2 z2 z2 |] %134

